X: 45
T:Flogging Reel
R:Reel
S:Bruce's 250
M:C|
L:1/8
Q:1/2=112
K:G
|:B~G3 BGdG|B~G3  (3Bcd gd|B~G3 BdcB|AGFG ABcA:|
|:~g3d BGBd|~g3d fgaf|~g3d BGBd|AGFG ABcA:|
|: (3Bcd gd Bdgd|Bdgd BGG2|Ac=fc Ac=fc|Ac=fc A=FF2|
(3Bcd gd Bdgd|Bdef ~g3a|bgaf gdBd|AGFG ABcA|]
